T: Coach House, The
M: 4/4
L: 1/8
K: Amin
|: AeeA eeAe | eAeA d2 dA | AeeA eeAB | gedB A2 AB :|
|: AaaA g2 Aa | aA g2 edde | AaaA g2 Aa | aAdB A2 AB :|
